;FLAVOR:Marlin
;TIME:426
;Filament used: 0.61866m
;Layer height: 0.3
;MINX:97.403
;MINY:213.012
;MINZ:0.3
;MAXX:154.28
;MAXY:250.144
;MAXZ:8.1
;Generated with Cura_SteamEngine 5.2.1
M104 S210
M105
M109 S210
M82 ;absolute extrusion mode
G28 ;Home
G1 Z15.0 F6000 

G92 E0
G1 F200 E3
G92 E0
M141 S28
G92 E0
G92 E0
;LAYER_COUNT:27
;LAYER:0
M107
G0 F3600 X113.224 Y214.144 Z0.3
;TYPE:SKIRT
G1 F1500 X113.923 Y213.776 E0.03941
G1 X114.655 Y213.48 E0.0788
G1 X115.413 Y213.26 E0.11818
G1 X116.19 Y213.118 E0.15759
G1 X116.977 Y213.054 E0.19698
G1 X117.713 Y213.067 E0.23371
G1 X118.079 Y213.091 E0.252
G1 X119.498 Y213.055 E0.32282
G1 X120.312 Y213.012 E0.36349
G1 X121.101 Y213.052 E0.4029
G1 X121.882 Y213.172 E0.44232
G1 X122.646 Y213.369 E0.48169
G1 X123.387 Y213.644 E0.52112
G1 X124.096 Y213.991 E0.5605
G1 X124.766 Y214.409 E0.5999
G1 X125.391 Y214.892 E0.63931
G1 X125.963 Y215.436 E0.67869
G1 X126.478 Y216.035 E0.7181
G1 X126.929 Y216.683 E0.75749
G1 X127.313 Y217.373 E0.79688
G1 X127.625 Y218.098 E0.83626
G1 X127.862 Y218.852 E0.87569
G1 X128.021 Y219.625 E0.91507
G1 X128.113 Y220.52 E0.95995
G1 X128.108 Y221.909 E1.02925
G1 X128.065 Y222.698 E1.06867
G1 X127.943 Y223.478 E1.10806
G1 X127.763 Y224.162 E1.14335
G1 X127.767 Y228.104 E1.34001
G1 X127.79 Y228.23 E1.3464
G1 X128.617 Y227.574 E1.39907
G1 X129.453 Y227.052 E1.44824
G1 X130.162 Y226.703 E1.48766
G1 X130.902 Y226.428 E1.52705
G1 X131.667 Y226.229 E1.56649
G1 X132.557 Y226.09 E1.61143
G1 X133.487 Y226.037 E1.6579
G1 X134.276 Y226.072 E1.6973
G1 X135.057 Y226.187 E1.73669
G1 X135.823 Y226.381 E1.77611
G1 X136.565 Y226.65 E1.81548
G1 X137.276 Y226.994 E1.85489
G1 X138.216 Y227.582 E1.91021
G1 X139.008 Y228.209 E1.9606
G1 X139.575 Y228.759 E2.00001
G1 X140.131 Y229.444 E2.04403
G1 X141.055 Y229.279 E2.09086
G1 X141.842 Y229.219 E2.13023
G1 X142.632 Y229.24 E2.16966
G1 X143.415 Y229.34 E2.20904
G1 X144.184 Y229.518 E2.24842
G1 X144.932 Y229.774 E2.28786
G1 X145.649 Y230.103 E2.32722
G1 X146.349 Y230.518 E2.36782
G1 X146.531 Y230.519 E2.3769
G1 X147.316 Y230.604 E2.41629
G1 X148.088 Y230.767 E2.45566
G1 X148.84 Y231.008 E2.49506
G1 X149.564 Y231.324 E2.53447
G1 X150.252 Y231.712 E2.57387
G1 X150.897 Y232.167 E2.61325
G1 X151.494 Y232.685 E2.65269
G1 X152.164 Y233.394 E2.70135
G1 X152.785 Y234.194 E2.75188
G1 X153.203 Y234.863 E2.79124
G1 X153.552 Y235.572 E2.83066
G1 X153.827 Y236.312 E2.87005
G1 X154.111 Y237.371 E2.92475
G1 X154.235 Y238.151 E2.96415
G1 X154.28 Y238.939 E3.00353
G1 X154.245 Y239.728 E3.04293
G1 X154.13 Y240.51 E3.08236
G1 X153.901 Y241.391 E3.12778
G1 X153.652 Y242.16 E3.1681
G1 X153.371 Y242.898 E3.2075
G1 X153.017 Y243.604 E3.2469
G1 X152.593 Y244.27 E3.28629
G1 X152.104 Y244.89 E3.32569
G1 X151.555 Y245.458 E3.3651
G1 X151.362 Y245.656 E3.37889
G1 X150.816 Y246.226 E3.41827
G1 X150.215 Y246.738 E3.45766
G1 X149.508 Y247.221 E3.50038
G1 X148.665 Y247.732 E3.54956
G1 X147.97 Y248.107 E3.58896
G1 X147.375 Y248.36 E3.62122
G1 X146.532 Y248.678 E3.66617
G1 X145.181 Y249.073 E3.73639
G1 X143.882 Y249.26 E3.80187
G1 X143.02 Y249.324 E3.84499
G1 X141.76 Y249.331 E3.90785
G1 X140.571 Y249.18 E3.96765
G1 X139.755 Y249.023 E4.0091
G1 X138.898 Y248.806 E4.05321
G1 X138.269 Y248.609 E4.08609
G1 X137.604 Y248.372 E4.12132
G1 X136.88 Y248.056 E4.16073
G1 X136.192 Y247.669 E4.20011
G1 X135.547 Y247.213 E4.23952
G1 X134.951 Y246.695 E4.27891
G1 X134.41 Y246.12 E4.3183
G1 X133.93 Y245.492 E4.35774
G1 X133.542 Y244.86 E4.39473
G1 X132.892 Y244.904 E4.42724
G1 X132.102 Y244.877 E4.46667
G1 X131.146 Y244.746 E4.51481
G1 X130.638 Y245.315 E4.55287
G1 X130.055 Y245.847 E4.59224
G1 X129.421 Y246.318 E4.63165
G1 X128.743 Y246.723 E4.67105
G1 X128.028 Y247.057 E4.71042
G1 X127.282 Y247.317 E4.74983
G1 X126.514 Y247.5 E4.78922
G1 X125.508 Y247.62 E4.83977
G1 X121.716 Y247.823 E5.02922
G1 X120.926 Y247.825 E5.06864
G1 X120.14 Y247.747 E5.10804
G1 X119.597 Y247.638 E5.13567
G1 X118.43 Y247.724 E5.19405
G1 X117.641 Y247.742 E5.23343
G1 X116.854 Y247.68 E5.27281
G1 X116.077 Y247.54 E5.3122
G1 X115.318 Y247.321 E5.35161
G1 X114.585 Y247.027 E5.39101
G1 X113.886 Y246.66 E5.4304
G1 X113.176 Y246.19 E5.47288
G1 X112.514 Y246.536 E5.51015
G1 X112.028 Y247.036 E5.54494
G1 X111.461 Y247.588 E5.58441
G1 X110.562 Y248.34 E5.64289
G1 X110.079 Y248.686 E5.67253
G1 X109.415 Y249.113 E5.71192
G1 X108.711 Y249.47 E5.7513
G1 X107.974 Y249.755 E5.79072
G1 X107.212 Y249.963 E5.83013
G1 X106.434 Y250.093 E5.86948
G1 X105.645 Y250.144 E5.90892
G1 X104.724 Y250.109 E5.95491
G1 X103.831 Y249.982 E5.99991
G1 X103.064 Y249.793 E6.03932
G1 X102.321 Y249.527 E6.07869
G1 X101.608 Y249.187 E6.1181
G1 X100.933 Y248.777 E6.1575
G1 X100.303 Y248.301 E6.19689
G1 X99.725 Y247.764 E6.23625
G1 X99.203 Y247.17 E6.27571
G1 X98.547 Y246.211 E6.33367
G1 X98.134 Y245.419 E6.37824
G1 X97.842 Y244.685 E6.41765
G1 X97.625 Y243.926 E6.45703
G1 X97.494 Y243.246 E6.49158
G1 X97.403 Y242.372 E6.53542
G1 X97.411 Y241.228 E6.5925
G1 X97.533 Y240.204 E6.64394
G1 X97.8 Y239.068 E6.70216
G1 X98.148 Y238.1 E6.75348
G1 X98.524 Y237.293 E6.7979
G1 X99.023 Y236.438 E6.84729
G1 X99.613 Y235.627 E6.89733
G1 X100.286 Y234.875 E6.94767
G1 X100.776 Y234.421 E6.981
G1 X101.203 Y234.058 E7.00896
G1 X101.83 Y233.578 E7.04836
G1 X102.827 Y232.995 E7.10598
G1 X103.624 Y232.605 E7.15024
G1 X104.099 Y232.392 E7.17622
G1 X104.912 Y232.059 E7.22005
G1 X105.936 Y231.723 E7.27381
G1 X106.964 Y231.424 E7.32723
G1 X107.732 Y231.242 E7.3666
G1 X108.483 Y231.142 E7.4044
G1 X109.45 Y231.06 E7.45282
G1 X109.301 Y230.297 E7.4916
G1 X109.217 Y229.38 E7.53755
G1 X109.409 Y220.679 E7.97175
G1 X109.466 Y219.891 E8.01116
G1 X109.603 Y219.114 E8.05052
G1 X109.818 Y218.354 E8.08993
G1 X110.108 Y217.619 E8.12935
G1 X110.471 Y216.918 E8.16873
G1 X110.903 Y216.257 E8.20813
G1 X111.4 Y215.643 E8.24754
G1 X111.956 Y215.083 E8.28691
G1 X112.566 Y214.582 E8.32629
G1 X113.224 Y214.144 E8.36573
G0 F3600 X113.602 Y214.389
G1 F1500 X114.292 Y214.049 E8.4041
G1 X115.014 Y213.784 E8.44247
G1 X115.759 Y213.594 E8.48083
G1 X116.52 Y213.483 E8.5192
G1 X117.289 Y213.451 E8.5576
G1 X118.052 Y213.491 E8.59572
G1 X119.535 Y213.453 E8.66973
G1 X120.332 Y213.412 E8.70954
G1 X121.1 Y213.454 E8.74792
G1 X121.86 Y213.576 E8.78632
G1 X122.603 Y213.775 E8.82469
G1 X123.321 Y214.051 E8.86307
G1 X124.006 Y214.4 E8.90142
G1 X124.652 Y214.818 E8.93981
G1 X125.25 Y215.301 E8.97816
G1 X125.796 Y215.843 E9.01654
G1 X126.282 Y216.439 E9.05491
G1 X126.704 Y217.083 E9.09333
G1 X127.056 Y217.766 E9.13166
G1 X127.336 Y218.483 E9.17006
G1 X127.54 Y219.224 E9.20841
G1 X127.665 Y219.983 E9.24678
G1 X127.712 Y220.84 E9.2896
G1 X127.708 Y221.908 E9.34289
G1 X127.665 Y222.676 E9.38126
G1 X127.543 Y223.435 E9.41961
G1 X127.363 Y224.101 E9.45403
G1 X127.367 Y228.137 E9.65539
G1 X127.441 Y228.549 E9.67627
G1 X127.48 Y229.086 E9.70314
G1 X128.072 Y228.509 E9.74438
G1 X128.854 Y227.896 E9.79395
G1 X129.665 Y227.391 E9.84161
G1 X130.357 Y227.055 E9.87999
G1 X131.08 Y226.792 E9.91838
G1 X131.826 Y226.605 E9.95675
G1 X132.61 Y226.486 E9.99631
G1 X133.509 Y226.437 E10.04123
G1 X134.277 Y226.475 E10.07959
G1 X135.037 Y226.592 E10.11795
G1 X135.781 Y226.787 E10.15632
G1 X136.501 Y227.058 E10.1947
G1 X137.189 Y227.403 E10.2331
G1 X137.998 Y227.919 E10.28097
G1 X138.76 Y228.523 E10.32949
G1 X139.309 Y229.061 E10.36783
G1 X139.996 Y229.912 E10.4224
G1 X140.583 Y229.761 E10.45264
G1 X141.344 Y229.65 E10.49101
G1 X142.112 Y229.617 E10.52936
G1 X142.88 Y229.665 E10.56775
G1 X143.639 Y229.792 E10.60614
G1 X144.38 Y229.997 E10.6445
G1 X145.096 Y230.278 E10.68287
G1 X145.779 Y230.632 E10.72125
G1 X146.211 Y230.917 E10.74707
G1 X146.528 Y230.919 E10.76289
G1 X147.292 Y231.005 E10.80124
G1 X148.043 Y231.17 E10.83961
G1 X148.774 Y231.411 E10.87801
G1 X149.475 Y231.728 E10.91639
G1 X150.139 Y232.115 E10.95473
G1 X150.76 Y232.569 E10.99311
G1 X151.33 Y233.085 E11.03147
G1 X151.881 Y233.681 E11.07196
G1 X152.468 Y234.439 E11.11979
G1 X152.873 Y235.093 E11.15817
G1 X153.208 Y235.785 E11.19653
G1 X153.469 Y236.509 E11.23492
G1 X153.727 Y237.493 E11.28568
G1 X153.843 Y238.253 E11.32403
G1 X153.88 Y239.022 E11.36244
G1 X153.836 Y239.79 E11.40082
G1 X153.713 Y240.549 E11.43918
G1 X153.52 Y241.268 E11.47632
G1 X153.271 Y242.037 E11.51665
G1 X152.996 Y242.755 E11.55501
G1 X152.649 Y243.441 E11.59336
G1 X152.232 Y244.087 E11.63172
G1 X151.75 Y244.687 E11.67012
G1 X151.208 Y245.233 E11.7085
G1 X151.034 Y245.424 E11.72139
G1 X150.498 Y245.976 E11.75978
G1 X149.907 Y246.469 E11.79817
G1 X149.301 Y246.879 E11.83468
G1 X148.458 Y247.39 E11.88386
G1 X147.78 Y247.754 E11.92225
G1 X147.234 Y247.986 E11.95185
G1 X146.391 Y248.304 E11.9968
G1 X145.097 Y248.683 E12.06407
G1 X143.852 Y248.861 E12.12681
G1 X142.99 Y248.925 E12.16994
G1 X141.785 Y248.931 E12.23005
G1 X140.647 Y248.787 E12.28728
G1 X139.831 Y248.63 E12.32874
G1 X139.017 Y248.425 E12.37062
G1 X138.388 Y248.228 E12.4035
G1 X137.745 Y247.998 E12.43757
G1 X137.04 Y247.689 E12.47598
G1 X136.372 Y247.309 E12.51432
G1 X135.746 Y246.861 E12.55272
G1 X135.171 Y246.351 E12.59107
G1 X134.651 Y245.784 E12.62945
G1 X134.193 Y245.166 E12.66783
G1 X133.767 Y244.445 E12.70961
G1 X132.865 Y244.504 E12.7547
G1 X132.096 Y244.475 E12.7931
G1 X131.335 Y244.366 E12.83145
G1 X130.993 Y244.28 E12.84904
G1 X130.725 Y244.629 E12.871
G1 X130.197 Y245.187 E12.90932
G1 X129.613 Y245.689 E12.94774
G1 X128.981 Y246.126 E12.98608
G1 X128.306 Y246.496 E13.02448
G1 X127.597 Y246.794 E13.06285
G1 X126.861 Y247.016 E13.1012
G1 X126.105 Y247.161 E13.13961
G1 X125.487 Y247.22 E13.17058
G1 X121.695 Y247.423 E13.36003
G1 X120.925 Y247.425 E13.39845
G1 X120.16 Y247.346 E13.43682
G1 X119.627 Y247.234 E13.46399
G1 X118.401 Y247.325 E13.52533
G1 X117.632 Y247.342 E13.5637
G1 X116.865 Y247.279 E13.60209
G1 X116.11 Y247.136 E13.64043
G1 X115.373 Y246.916 E13.6788
G1 X114.662 Y246.621 E13.71721
G1 X113.987 Y246.253 E13.75556
G1 X113.202 Y245.715 E13.80304
G1 X112.601 Y246.046 E13.83727
G1 X112.276 Y246.207 E13.85537
G1 X111.749 Y246.749 E13.89308
G1 X111.182 Y247.301 E13.93256
G1 X110.329 Y248.015 E13.98806
G1 X109.846 Y248.361 E14.0177
G1 X109.199 Y248.776 E14.05605
G1 X108.511 Y249.121 E14.09445
G1 X107.792 Y249.393 E14.1328
G1 X107.048 Y249.589 E14.17119
G1 X106.288 Y249.707 E14.20956
G1 X105.52 Y249.745 E14.24792
G1 X104.75 Y249.709 E14.28638
G1 X103.888 Y249.586 E14.32982
G1 X103.142 Y249.398 E14.3682
G1 X102.419 Y249.134 E14.4066
G1 X101.728 Y248.797 E14.44495
G1 X101.076 Y248.39 E14.4833
G1 X100.469 Y247.917 E14.52169
G1 X99.915 Y247.383 E14.56008
G1 X99.419 Y246.795 E14.59846
G1 X98.888 Y246.002 E14.64607
G1 X98.489 Y245.234 E14.68925
G1 X98.207 Y244.518 E14.72764
G1 X98.002 Y243.777 E14.766
G1 X97.88 Y243.096 E14.80052
G1 X97.801 Y242.331 E14.83889
G1 X97.811 Y241.248 E14.89292
G1 X97.931 Y240.251 E14.94302
G1 X98.184 Y239.18 E14.99792
G1 X98.525 Y238.235 E15.04804
G1 X98.882 Y237.471 E15.09012
G1 X99.369 Y236.64 E15.13817
G1 X99.928 Y235.874 E15.18548
G1 X100.585 Y235.142 E15.23455
G1 X101.035 Y234.726 E15.26512
G1 X101.462 Y234.363 E15.29309
G1 X102.073 Y233.896 E15.33145
G1 X103.002 Y233.354 E15.38511
G1 X104.015 Y232.858 E15.44138
G1 X105.043 Y232.437 E15.49681
G1 X106.047 Y232.107 E15.54953
G1 X107.075 Y231.808 E15.60294
G1 X107.824 Y231.632 E15.64133
G1 X108.517 Y231.54 E15.67621
G1 X109.095 Y231.491 E15.70515
G1 X109.987 Y231.462 E15.74967
G1 X109.831 Y230.937 E15.777
G1 X109.689 Y230.181 E15.81537
G1 X109.625 Y229.033 E15.87274
G1 X109.809 Y220.688 E16.28917
G1 X109.866 Y219.921 E16.32754
G1 X110.002 Y219.164 E16.36591
G1 X110.216 Y218.425 E16.4043
G1 X110.506 Y217.712 E16.4427
G1 X110.867 Y217.034 E16.48102
G1 X111.298 Y216.396 E16.51943
G1 X111.792 Y215.807 E16.55779
G1 X112.345 Y215.272 E16.59617
G1 X112.95 Y214.798 E16.63452
G1 X113.602 Y214.389 E16.67292
G0 F3600 X113.977 Y214.641
G1 F1500 X114.658 Y214.331 E16.71025
G1 X115.369 Y214.097 E16.74759
G1 X116.1 Y213.939 E16.7849
G1 X116.844 Y213.86 E16.82223
G1 X117.661 Y213.866 E16.86299
G1 X118.047 Y213.891 E16.88229
G1 X119.56 Y213.853 E16.95779
G1 X120.352 Y213.812 E16.99736
G1 X121.098 Y213.856 E17.03464
G1 X121.836 Y213.98 E17.07198
G1 X122.557 Y214.182 E17.10933
G1 X123.251 Y214.459 E17.14661
G1 X123.913 Y214.809 E17.18397
G1 X124.533 Y215.227 E17.22128
G1 X125.104 Y215.71 E17.25859
G1 X125.622 Y216.25 E17.29592
G1 X126.078 Y216.843 E17.33324
G1 X126.469 Y217.481 E17.37058
G1 X126.789 Y218.157 E17.40789
G1 X127.035 Y218.863 E17.44519
G1 X127.205 Y219.592 E17.48253
G1 X127.296 Y220.334 E17.51983
G1 X127.312 Y220.838 E17.54499
G1 X127.308 Y221.906 E17.59827
G1 X127.265 Y222.653 E17.6356
G1 X127.143 Y223.391 E17.67292
G1 X126.963 Y224.04 E17.70652
G1 X126.967 Y228.172 E17.91267
G1 X127.049 Y228.64 E17.93637
G1 X127.098 Y229.386 E17.97367
G1 X127.082 Y229.794 E17.99404
G1 X127.325 Y229.899 E18.00725
G1 X127.871 Y229.257 E18.04929
G1 X128.413 Y228.743 E18.08656
G1 X129.097 Y228.215 E18.12967
G1 X129.877 Y227.732 E18.17544
G1 X130.551 Y227.407 E18.21277
G1 X131.256 Y227.157 E18.25009
G1 X131.983 Y226.983 E18.28738
G1 X132.664 Y226.883 E18.32172
G1 X133.531 Y226.837 E18.36504
G1 X134.278 Y226.877 E18.40236
G1 X135.016 Y226.996 E18.43965
G1 X135.738 Y227.193 E18.47699
G1 X136.434 Y227.467 E18.51431
G1 X137.098 Y227.813 E18.55166
G1 X137.785 Y228.259 E18.59253
G1 X138.51 Y228.837 E18.63879
G1 X139.043 Y229.362 E18.67611
G1 X139.59 Y230.044 E18.71973
G1 X139.822 Y230.388 E18.74043
G1 X140.153 Y230.276 E18.75786
G1 X140.883 Y230.113 E18.79518
G1 X141.627 Y230.029 E18.83253
G1 X142.375 Y230.025 E18.86985
G1 X143.119 Y230.101 E18.90716
G1 X143.851 Y230.256 E18.94449
G1 X144.562 Y230.488 E18.98181
G1 X145.244 Y230.795 E19.01912
G1 X145.89 Y231.172 E19.05643
G1 X146.085 Y231.316 E19.06853
G1 X146.524 Y231.32 E19.09043
G1 X147.267 Y231.406 E19.12775
G1 X147.997 Y231.572 E19.1651
G1 X148.705 Y231.814 E19.20243
G1 X149.382 Y232.131 E19.23972
G1 X150.023 Y232.518 E19.27708
G1 X150.618 Y232.971 E19.31439
G1 X151.526 Y233.874 E19.37827
G1 X152.151 Y234.684 E19.42932
G1 X152.542 Y235.322 E19.46665
G1 X152.863 Y235.997 E19.50394
G1 X153.11 Y236.703 E19.54125
G1 X153.344 Y237.614 E19.58818
G1 X153.451 Y238.354 E19.62548
G1 X153.479 Y239.102 E19.66283
G1 X153.427 Y239.848 E19.70013
G1 X153.295 Y240.585 E19.73749
G1 X153.14 Y241.144 E19.76643
G1 X152.891 Y241.913 E19.80676
G1 X152.622 Y242.612 E19.84412
G1 X152.281 Y243.277 E19.88141
G1 X151.871 Y243.903 E19.91874
G1 X151.396 Y244.481 E19.95607
G1 X150.838 Y245.025 E19.99494
G1 X150.705 Y245.192 E20.0056
G1 X150.18 Y245.725 E20.04292
G1 X149.601 Y246.198 E20.08022
G1 X149.094 Y246.537 E20.11065
G1 X148.251 Y247.048 E20.15983
G1 X147.591 Y247.401 E20.19717
G1 X147.093 Y247.612 E20.22415
G1 X146.25 Y247.93 E20.2691
G1 X145.014 Y248.292 E20.33336
G1 X143.822 Y248.462 E20.39343
G1 X142.96 Y248.526 E20.43655
G1 X141.81 Y248.532 E20.49393
G1 X140.722 Y248.394 E20.54864
G1 X139.906 Y248.237 E20.5901
G1 X139.137 Y248.043 E20.62967
G1 X138.508 Y247.846 E20.66255
G1 X137.886 Y247.624 E20.6955
G1 X137.202 Y247.322 E20.7328
G1 X136.553 Y246.95 E20.77012
G1 X135.948 Y246.51 E20.80745
G1 X135.393 Y246.008 E20.84478
G1 X134.895 Y245.45 E20.8821
G1 X134.459 Y244.842 E20.91942
G1 X133.987 Y244.007 E20.96727
G1 X133.586 Y244.057 E20.98744
G1 X132.839 Y244.105 E21.02478
G1 X132.092 Y244.073 E21.06208
G1 X131.352 Y243.961 E21.09942
G1 X130.848 Y243.829 E21.12541
G1 X130.285 Y244.523 E21.17
G1 X129.755 Y245.051 E21.20732
G1 X129.171 Y245.519 E21.24466
G1 X128.541 Y245.922 E21.28197
G1 X127.871 Y246.255 E21.3193
G1 X127.17 Y246.515 E21.3566
G1 X126.445 Y246.699 E21.39392
G1 X125.465 Y246.821 E21.44319
G1 X121.673 Y247.024 E21.63264
G1 X120.925 Y247.024 E21.66996
G1 X120.181 Y246.944 E21.70729
G1 X119.66 Y246.831 E21.73389
G1 X118.371 Y246.926 E21.79837
G1 X117.624 Y246.941 E21.83565
G1 X116.878 Y246.877 E21.873
G1 X116.144 Y246.733 E21.91032
G1 X115.43 Y246.511 E21.94762
G1 X114.743 Y246.215 E21.98494
G1 X114.091 Y245.847 E22.0223
G1 X113.483 Y245.412 E22.05959
G1 X113.264 Y245.217 E22.07422
G1 X112.843 Y245.462 E22.09852
G1 X112.038 Y245.877 E22.14371
G1 X111.47 Y246.463 E22.18442
G1 X110.903 Y247.015 E22.2239
