;FLAVOR:Marlin
;TIME:864
;Filament used: 0.771747m
;Layer height: 0.3
;MINX:106.9
;MINY:201.572
;MINZ:0.3
;MAXX:143.1
;MAXY:268.427
;MAXZ:9.3
;Generated with Cura_SteamEngine 5.2.1
M104 S210
M105
M109 S210
M82 ;absolute extrusion mode
G28 ;Home
G1 Z15.0 F6000 

G92 E0
G1 F200 E3
G92 E0
M141 S28
G92 E0
G92 E0
;LAYER_COUNT:31
;LAYER:0
M107
G0 F3600 X117.878 Y204.145 Z0.3
;TYPE:SKIRT
G1 F1050 X118.703 Y203.698 E0.04681
G1 X121.703 Y202.299 E0.21196
G1 X122.435 Y202.002 E0.25137
G1 X123.193 Y201.78 E0.29077
G1 X123.97 Y201.636 E0.3302
G1 X124.757 Y201.572 E0.36959
G1 X125.546 Y201.587 E0.40896
G1 X126.33 Y201.682 E0.44836
G1 X127.1 Y201.856 E0.48775
G1 X127.978 Y202.15 E0.53394
G1 X131.295 Y203.696 E0.71652
G1 X131.993 Y204.065 E0.75591
G1 X132.65 Y204.503 E0.7953
G1 X133.259 Y205.006 E0.83471
G1 X133.815 Y205.567 E0.87411
G1 X134.31 Y206.181 E0.91346
G1 X134.742 Y206.843 E0.9529
G1 X134.862 Y207.077 E0.96602
G1 X135.268 Y207.341 E0.99018
G1 X135.838 Y207.751 E1.02521
G1 X136.569 Y208.327 E1.07164
G1 X137.259 Y208.928 E1.11729
G1 X137.939 Y209.59 E1.16464
G1 X138.599 Y210.299 E1.21297
G1 X139.335 Y211.193 E1.27074
G1 X139.936 Y212.019 E1.3217
G1 X140.45 Y212.827 E1.36948
G1 X140.723 Y213.29 E1.39629
G1 X141.167 Y214.107 E1.44268
G1 X141.564 Y214.949 E1.48913
G1 X141.83 Y215.583 E1.52343
G1 X142.163 Y216.488 E1.57154
G1 X142.484 Y217.564 E1.62756
G1 X142.66 Y218.276 E1.66415
G1 X142.839 Y219.179 E1.71008
G1 X142.947 Y219.893 E1.7461
G1 X143.036 Y220.753 E1.78924
G1 X143.073 Y221.298 E1.81649
G1 X143.1 Y222.251 E1.86406
G1 X143.098 Y247.927 E3.14504
G1 X143.065 Y248.973 E3.19725
G1 X142.941 Y250.175 E3.25753
G1 X142.781 Y251.147 E3.30668
G1 X142.581 Y252.068 E3.3537
G1 X142.32 Y253.017 E3.4028
G1 X141.942 Y254.13 E3.46145
G1 X141.559 Y255.067 E3.51195
G1 X141.055 Y256.115 E3.56996
G1 X140.594 Y256.943 E3.61724
G1 X140.24 Y257.519 E3.65097
G1 X139.735 Y258.266 E3.69596
G1 X139.136 Y259.06 E3.74558
G1 X138.434 Y259.884 E3.79959
G1 X137.918 Y260.432 E3.83714
G1 X137.263 Y261.065 E3.88258
G1 X136.762 Y261.509 E3.91598
G1 X136.052 Y262.086 E3.96163
G1 X135.456 Y262.525 E3.99856
G1 X134.871 Y262.915 E4.03363
G1 X134.821 Y263.016 E4.03926
G1 X134.403 Y263.687 E4.0787
G1 X133.92 Y264.311 E4.11806
G1 X133.377 Y264.884 E4.15745
G1 X132.778 Y265.399 E4.19686
G1 X132.13 Y265.85 E4.23625
G1 X131.295 Y266.303 E4.28364
G1 X128.295 Y267.701 E4.44876
G1 X127.563 Y267.998 E4.48818
G1 X126.805 Y268.219 E4.52757
G1 X126.028 Y268.363 E4.56699
G1 X125.241 Y268.427 E4.60639
G1 X124.452 Y268.412 E4.64576
G1 X123.668 Y268.316 E4.68516
G1 X122.898 Y268.142 E4.72455
G1 X122.02 Y267.848 E4.77074
G1 X118.707 Y266.305 E4.95307
G1 X118.009 Y265.936 E4.99246
G1 X117.352 Y265.498 E5.03186
G1 X116.743 Y264.996 E5.07123
G1 X116.187 Y264.435 E5.11064
G1 X115.691 Y263.82 E5.15006
G1 X115.259 Y263.159 E5.18945
G1 X115.136 Y262.92 E5.20286
G1 X114.511 Y262.502 E5.24037
G1 X113.927 Y262.07 E5.27661
G1 X113.218 Y261.493 E5.32222
G1 X112.705 Y261.037 E5.35646
G1 X112.068 Y260.418 E5.40078
G1 X111.604 Y259.926 E5.43452
G1 X110.989 Y259.214 E5.48146
G1 X110.315 Y258.333 E5.5368
G1 X109.897 Y257.729 E5.57344
G1 X109.389 Y256.916 E5.62127
G1 X108.826 Y255.881 E5.68005
G1 X108.428 Y255.035 E5.7267
G1 X108.161 Y254.395 E5.76129
G1 X107.85 Y253.545 E5.80645
G1 X107.569 Y252.637 E5.85387
G1 X107.281 Y251.466 E5.91403
G1 X107.111 Y250.514 E5.96228
G1 X107.024 Y249.875 E5.99445
G1 X106.933 Y248.912 E6.04271
G1 X106.9 Y247.749 E6.10076
G1 X106.902 Y222.073 E7.38174
G1 X106.935 Y221.029 E7.43385
G1 X107.036 Y220.05 E7.48295
G1 X107.11 Y219.516 E7.50985
G1 X107.234 Y218.801 E7.54605
G1 X107.348 Y218.258 E7.57373
G1 X107.571 Y217.359 E7.61994
G1 X107.851 Y216.447 E7.66754
G1 X108.185 Y215.541 E7.71571
G1 X108.569 Y214.651 E7.76407
G1 X108.984 Y213.821 E7.81037
G1 X109.255 Y213.325 E7.83857
G1 X109.736 Y212.515 E7.88556
G1 X110.267 Y211.73 E7.93285
G1 X110.717 Y211.129 E7.9703
G1 X111.275 Y210.454 E8.014
G1 X111.631 Y210.053 E8.04075
G1 X112.12 Y209.538 E8.07618
G1 X112.501 Y209.163 E8.10285
G1 X113.026 Y208.681 E8.13841
G1 X113.43 Y208.335 E8.16495
G1 X114.169 Y207.744 E8.21215
G1 X115.125 Y207.069 E8.27054
G1 X115.602 Y206.305 E8.31547
G1 X116.086 Y205.681 E8.35487
G1 X116.63 Y205.109 E8.39426
G1 X117.23 Y204.596 E8.43364
G1 X117.878 Y204.145 E8.47303
G0 F3600 X118.261 Y204.381
G1 F1050 X118.872 Y204.06 E8.50746
G1 X121.872 Y202.661 E8.67261
G1 X122.586 Y202.373 E8.71102
G1 X123.325 Y202.16 E8.74939
G1 X124.082 Y202.025 E8.78775
G1 X124.849 Y201.97 E8.82611
G1 X125.618 Y201.994 E8.8645
G1 X126.38 Y202.098 E8.90287
G1 X127.127 Y202.28 E8.94122
G1 X128.126 Y202.661 E8.99457
G1 X131.126 Y204.059 E9.15969
G1 X131.805 Y204.419 E9.19803
G1 X132.443 Y204.848 E9.23639
G1 X133.034 Y205.342 E9.27482
G1 X133.569 Y205.893 E9.31313
G1 X134.045 Y206.498 E9.35154
G1 X134.455 Y207.148 E9.38988
G1 X134.558 Y207.356 E9.40146
G1 X135.049 Y207.676 E9.4307
G1 X135.591 Y208.065 E9.46398
G1 X136.298 Y208.623 E9.50892
G1 X136.998 Y209.232 E9.55521
G1 X137.522 Y209.742 E9.59169
G1 X138.278 Y210.54 E9.64653
G1 X139.024 Y211.447 E9.70512
G1 X139.61 Y212.251 E9.75476
G1 X140.113 Y213.041 E9.80148
G1 X140.372 Y213.481 E9.82695
G1 X140.812 Y214.29 E9.8729
G1 X141.203 Y215.12 E9.91867
G1 X141.454 Y215.721 E9.95116
G1 X141.783 Y216.614 E9.99864
G1 X142.1 Y217.678 E10.05403
G1 X142.268 Y218.354 E10.08878
G1 X142.447 Y219.257 E10.13471
G1 X142.549 Y219.934 E10.16887
G1 X142.638 Y220.794 E10.212
G1 X142.673 Y221.311 E10.23786
G1 X142.7 Y222.251 E10.28477
G1 X142.698 Y247.927 E11.56575
G1 X142.665 Y248.951 E11.61687
G1 X142.543 Y250.13 E11.676
G1 X142.392 Y251.057 E11.72286
G1 X142.192 Y251.974 E11.76968
G1 X141.937 Y252.901 E11.81765
G1 X141.562 Y254.003 E11.87572
G1 X141.198 Y254.894 E11.92374
G1 X140.696 Y255.938 E11.98154
G1 X140.245 Y256.748 E12.02779
G1 X139.909 Y257.294 E12.05977
G1 X139.404 Y258.04 E12.10472
G1 X138.836 Y258.795 E12.15186
G1 X138.129 Y259.624 E12.20621
G1 X137.64 Y260.144 E12.24182
G1 X136.985 Y260.777 E12.28727
G1 X136.51 Y261.199 E12.31897
G1 X135.8 Y261.776 E12.36461
G1 X135.235 Y262.192 E12.39962
G1 X134.556 Y262.644 E12.44031
G1 X134.422 Y262.909 E12.45513
G1 X134.006 Y263.556 E12.4935
G1 X133.525 Y264.156 E12.53187
G1 X132.984 Y264.703 E12.57025
G1 X132.389 Y265.191 E12.60864
G1 X131.747 Y265.614 E12.647
G1 X131.126 Y265.94 E12.68199
G1 X128.126 Y267.338 E12.84711
G1 X127.413 Y267.627 E12.8855
G1 X126.673 Y267.839 E12.9239
G1 X125.916 Y267.974 E12.96226
G1 X125.149 Y268.03 E13.00063
G1 X124.38 Y268.005 E13.03902
G1 X123.618 Y267.901 E13.07739
G1 X122.871 Y267.718 E13.11576
G1 X121.876 Y267.339 E13.16888
G1 X118.876 Y265.942 E13.33398
G1 X118.197 Y265.582 E13.37232
G1 X117.558 Y265.153 E13.41072
G1 X116.968 Y264.66 E13.44908
G1 X116.432 Y264.108 E13.48746
G1 X115.956 Y263.504 E13.52583
G1 X115.546 Y262.853 E13.56421
G1 X115.443 Y262.644 E13.57584
G1 X114.733 Y262.169 E13.61846
G1 X114.179 Y261.76 E13.65281
G1 X113.47 Y261.183 E13.69842
G1 X112.984 Y260.75 E13.73089
G1 X112.347 Y260.131 E13.7752
G1 X111.906 Y259.664 E13.80725
G1 X111.304 Y258.967 E13.8532
G1 X110.633 Y258.09 E13.90829
G1 X110.236 Y257.517 E13.94307
G1 X109.739 Y256.722 E13.98984
G1 X109.183 Y255.698 E14.04797
G1 X108.79 Y254.864 E14.09397
G1 X108.537 Y254.257 E14.12678
G1 X108.225 Y253.404 E14.17209
G1 X107.953 Y252.525 E14.218
G1 X107.675 Y251.394 E14.2761
G1 X107.505 Y250.444 E14.32425
G1 X107.422 Y249.838 E14.35477
G1 X107.333 Y248.897 E14.40192
G1 X107.3 Y247.749 E14.45922
G1 X107.302 Y222.073 E15.7402
G1 X107.335 Y221.051 E15.79122
G1 X107.434 Y220.091 E15.83937
G1 X107.504 Y219.585 E15.86485
G1 X107.628 Y218.87 E15.90105
G1 X107.736 Y218.354 E15.92736
G1 X107.955 Y217.469 E15.97284
G1 X108.226 Y216.587 E16.01887
G1 X108.558 Y215.688 E16.06669
G1 X108.933 Y214.817 E16.114
G1 X109.342 Y214 E16.15958
G1 X109.599 Y213.529 E16.18635
G1 X110.069 Y212.738 E16.23225
G1 X110.599 Y211.954 E16.27946
G1 X111.026 Y211.384 E16.315
G1 X111.584 Y210.709 E16.35869
G1 X111.921 Y210.329 E16.38403
G1 X112.41 Y209.814 E16.41946
G1 X112.771 Y209.458 E16.44475
G1 X113.296 Y208.976 E16.48031
G1 X113.68 Y208.648 E16.50551
G1 X114.413 Y208.062 E16.55233
G1 X115.167 Y207.53 E16.59836
G1 X115.447 Y207.35 E16.61497
G1 X115.582 Y207.083 E16.6299
G1 X116 Y206.436 E16.66833
G1 X116.481 Y205.837 E16.70665
G1 X117.023 Y205.291 E16.74504
G1 X117.618 Y204.804 E16.7834
G1 X118.261 Y204.381 E16.82179
G0 F3600 X118.744 Y204.562
G1 F1050 X122.042 Y203.024 E17.00334
G1 X122.735 Y202.744 E17.04063
G1 X123.455 Y202.541 E17.07796
G1 X124.193 Y202.415 E17.11531
G1 X124.939 Y202.368 E17.1526
G1 X125.687 Y202.402 E17.18996
G1 X126.426 Y202.515 E17.22725
G1 X127.149 Y202.706 E17.26456
G1 X127.957 Y203.023 E17.30786
G1 X130.957 Y204.421 E17.47299
G1 X131.617 Y204.773 E17.51031
G1 X132.236 Y205.193 E17.54763
G1 X132.806 Y205.677 E17.58493
G1 X133.322 Y206.219 E17.62227
G1 X133.777 Y206.813 E17.6596
G1 X134.166 Y207.452 E17.69692
G1 X134.251 Y207.633 E17.7069
G1 X134.831 Y208.011 E17.74143
G1 X135.343 Y208.379 E17.77289
G1 X136.048 Y208.935 E17.81769
G1 X136.723 Y209.522 E17.86231
G1 X137.243 Y210.029 E17.89855
G1 X137.975 Y210.801 E17.95162
G1 X138.714 Y211.699 E18.00965
G1 X139.271 Y212.463 E18.05682
G1 X139.906 Y213.462 E18.11587
G1 X140.459 Y214.48 E18.17367
G1 X140.841 Y215.29 E18.21835
G1 X141.079 Y215.859 E18.24912
G1 X141.403 Y216.739 E18.29591
G1 X141.717 Y217.792 E18.35073
G1 X141.875 Y218.432 E18.38361
G1 X142.054 Y219.335 E18.42954
G1 X142.151 Y219.975 E18.46184
G1 X142.266 Y221.087 E18.51761
G1 X142.3 Y222.251 E18.57571
G1 X142.298 Y247.927 E19.85669
G1 X142.267 Y248.911 E19.9058
G1 X142.146 Y250.08 E19.96444
G1 X141.998 Y250.983 E20.01009
G1 X141.801 Y251.89 E20.05639
G1 X141.556 Y252.782 E20.10255
G1 X141.195 Y253.842 E20.15841
G1 X140.824 Y254.748 E20.20725
G1 X140.344 Y255.748 E20.26259
G1 X139.895 Y256.554 E20.30862
G1 X139.578 Y257.07 E20.33884
G1 X139.074 Y257.816 E20.38375
G1 X138.523 Y258.546 E20.42938
G1 X137.825 Y259.365 E20.48307
G1 X137.362 Y259.857 E20.51678
G1 X136.707 Y260.49 E20.56222
G1 X136.258 Y260.888 E20.59215
G1 X135.548 Y261.465 E20.6378
G1 X135.013 Y261.859 E20.67095
G1 X134.249 Y262.368 E20.71675
G1 X134.023 Y262.799 E20.74103
G1 X133.608 Y263.422 E20.77837
G1 X133.129 Y263.996 E20.81567
G1 X132.592 Y264.517 E20.853
G1 X132.002 Y264.976 E20.89029
G1 X131.26 Y265.437 E20.93387
G1 X127.957 Y266.976 E21.11567
G1 X127.263 Y267.255 E21.15299
G1 X126.543 Y267.459 E21.19032
G1 X125.806 Y267.584 E21.22762
G1 X125.059 Y267.631 E21.26496
G1 X124.312 Y267.597 E21.30227
G1 X123.572 Y267.484 E21.33961
G1 X122.849 Y267.292 E21.37693
G1 X122.045 Y266.977 E21.42001
G1 X119.045 Y265.58 E21.58512
G1 X118.385 Y265.228 E21.62243
G1 X117.766 Y264.808 E21.65975
G1 X117.195 Y264.324 E21.6971
G1 X116.679 Y263.783 E21.7344
G1 X116.224 Y263.189 E21.77173
G1 X115.835 Y262.55 E21.80905
G1 X115.747 Y262.364 E21.81932
G1 X114.956 Y261.837 E21.86674
G1 X114.432 Y261.449 E21.89926
G1 X113.723 Y260.872 E21.94487
G1 X113.263 Y260.463 E21.97558
G1 X112.626 Y259.844 E22.01989
G1 X112.209 Y259.402 E22.05021
G1 X111.611 Y258.71 E22.09584
G1 X110.951 Y257.847 E22.15004
G1 X110.575 Y257.305 E22.18295
G1 X110.083 Y256.518 E22.22926
G1 X109.542 Y255.522 E22.2858
G1 X109.152 Y254.694 E22.33147
G1 X108.912 Y254.12 E22.3625
G1 X108.669 Y253.456 E22.39778
G1 X108.342 Y252.434 E22.45131
G1 X108.062 Y251.289 E22.51012
G1 X107.898 Y250.374 E22.5565
G1 X107.82 Y249.8 E22.5854
G1 X107.733 Y248.88 E22.6315
G1 X107.7 Y247.749 E22.68795
G1 X107.702 Y222.073 E23.96893
G1 X107.733 Y221.091 E24.01795
G1 X107.857 Y219.889 E24.07824
G1 X108.064 Y218.698 E24.13855
G1 X108.343 Y217.569 E24.19657
G1 X108.611 Y216.7 E24.24194
G1 X108.925 Y215.846 E24.28733
G1 X109.295 Y214.989 E24.3339
G1 X109.7 Y214.179 E24.37908
G1 X109.943 Y213.734 E24.40438
G1 X110.414 Y212.941 E24.45039
G1 X110.93 Y212.178 E24.49635
G1 X111.334 Y211.639 E24.52995
G1 X112.046 Y210.778 E24.58569
G1 X112.863 Y209.917 E24.64491
G1 X113.748 Y209.105 E24.70483
G1 X114.645 Y208.387 E24.76215
G1 X115.397 Y207.857 E24.80805
G1 X115.753 Y207.628 E24.82917
G1 X115.981 Y207.193 E24.85367
G1 X116.397 Y206.571 E24.89101
G1 X116.876 Y205.997 E24.9283
G1 X117.415 Y205.478 E24.96564
G1 X118.005 Y205.019 E25.00293
G1 X118.744 Y204.562 E25.04628
G0 F3600 X119.211 Y204.785
G1 F1050 X122.211 Y203.386 E25.21142
G1 X122.885 Y203.116 E25.24765
G1 X123.585 Y202.922 E25.28389
G1 X124.302 Y202.805 E25.32013
G1 X125.027 Y202.768 E25.35635
G1 X125.752 Y202.811 E25.39258
G1 X126.468 Y202.933 E25.42882
G1 X127.166 Y203.134 E25.46506
G1 X127.788 Y203.386 E25.49854
G1 X130.788 Y204.784 E25.66366
G1 X131.428 Y205.126 E25.69987
G1 X132.027 Y205.537 E25.73611
G1 X132.577 Y206.011 E25.77233
G1 X133.072 Y206.543 E25.80858
G1 X133.506 Y207.126 E25.84485
G1 X133.872 Y207.753 E25.88107
G1 X133.943 Y207.913 E25.8898
G1 X134.612 Y208.346 E25.92956
G1 X135.095 Y208.693 E25.95923
G1 X135.909 Y209.344 E26.01123
G1 X136.464 Y209.827 E26.04793
G1 X137.19 Y210.547 E26.09895
G1 X137.688 Y211.082 E26.13541
G1 X138.389 Y211.933 E26.19042
G1 X138.951 Y212.705 E26.23806
G1 X139.562 Y213.666 E26.29487
G1 X140.096 Y214.649 E26.35068
G1 X140.479 Y215.461 E26.39547
G1 X140.704 Y215.997 E26.42448
G1 X141.022 Y216.861 E26.47041
G1 X141.334 Y217.907 E26.52487
G1 X141.483 Y218.51 E26.55585
G1 X141.662 Y219.413 E26.60178
G1 X141.753 Y220.017 E26.63226
G1 X141.866 Y221.112 E26.68718
G1 X141.9 Y222.251 E26.74403
G1 X141.898 Y247.927 E28.02501
G1 X141.867 Y248.887 E28.07293
G1 X141.75 Y250.024 E28.12995
G1 X141.604 Y250.911 E28.1748
G1 X141.413 Y251.791 E28.21972
G1 X141.173 Y252.663 E28.26485
G1 X140.817 Y253.711 E28.32007
G1 X140.463 Y254.575 E28.36665
G1 X139.984 Y255.572 E28.42183
G1 X139.546 Y256.359 E28.46677
G1 X139.246 Y256.846 E28.4953
G1 X138.749 Y257.581 E28.53957
G1 X138.214 Y258.292 E28.58396
G1 X137.52 Y259.105 E28.63729
G1 X137.085 Y259.569 E28.66902
G1 X136.43 Y260.202 E28.71447
G1 X136.005 Y260.578 E28.74278
G1 X135.295 Y261.155 E28.78842
G1 X134.791 Y261.526 E28.81964
G1 X133.948 Y262.087 E28.87016
G1 X133.625 Y262.686 E28.90411
G1 X133.211 Y263.283 E28.94036
G1 X132.735 Y263.831 E28.97657
G1 X132.201 Y264.324 E29.01283
G1 X131.616 Y264.754 E29.04905
G1 X130.788 Y265.215 E29.09633
G1 X127.788 Y266.613 E29.26146
G1 X127.113 Y266.883 E29.29773
G1 X126.414 Y267.078 E29.33393
G1 X125.697 Y267.194 E29.37017
G1 X124.971 Y267.231 E29.40644
G1 X124.246 Y267.188 E29.44267
G1 X123.53 Y267.065 E29.47891
G1 X122.832 Y266.865 E29.51514
G1 X122.214 Y266.614 E29.54842
G1 X119.214 Y265.217 E29.71352
G1 X118.573 Y264.875 E29.74977
G1 X117.974 Y264.464 E29.78601
G1 X117.424 Y263.99 E29.82223
G1 X116.929 Y263.458 E29.85849
G1 X116.495 Y262.875 E29.89475
G1 X116.129 Y262.248 E29.93097
G1 X116.061 Y262.096 E29.93928
G1 X115.178 Y261.505 E29.99229
G1 X114.684 Y261.139 E30.02296
G1 X113.975 Y260.562 E30.06856
G1 X113.541 Y260.176 E30.09754
G1 X112.904 Y259.557 E30.14185
G1 X112.512 Y259.141 E30.17037
G1 X111.916 Y258.451 E30.21586
G1 X111.268 Y257.604 E30.26906
G1 X110.915 Y257.093 E30.30005
G1 X110.421 Y256.302 E30.34658
G1 X109.901 Y255.347 E30.40083
G1 X109.514 Y254.524 E30.4462
G1 X109.288 Y253.982 E30.4755
G1 X109.045 Y253.318 E30.51077
G1 X108.727 Y252.325 E30.56279
G1 X108.455 Y251.216 E30.61976
G1 X108.292 Y250.303 E30.66603
G1 X108.218 Y249.762 E30.69327
G1 X108.133 Y248.862 E30.73837
G1 X108.1 Y247.749 E30.79393
G1 X108.102 Y222.073 E32.07491
G1 X108.133 Y221.114 E32.12278
G1 X108.254 Y219.94 E32.18166
G1 X108.456 Y218.777 E32.24055
G1 X108.728 Y217.679 E32.29698
G1 X108.986 Y216.84 E32.34078
G1 X109.304 Y215.977 E32.38666
G1 X109.655 Y215.163 E32.43089
G1 X110.163 Y214.147 E32.48756
G1 X110.754 Y213.151 E32.54534
G1 X111.261 Y212.402 E32.59046
G1 X111.642 Y211.894 E32.62214
G1 X112.346 Y211.042 E32.67728
G1 X113.148 Y210.197 E32.7354
G1 X114.003 Y209.413 E32.79328
G1 X114.878 Y208.713 E32.84918
G1 X115.628 Y208.184 E32.89497
G1 X116.052 Y207.912 E32.9201
G1 X116.379 Y207.307 E32.95441
G1 X116.794 Y206.711 E32.99065
G1 X117.271 Y206.163 E33.02689
G1 X117.806 Y205.671 E33.06315
G1 X118.391 Y205.241 E33.09938
G1 X119.211 Y204.785 E33.14619
